X: 16878
T: Hats Off To Hatao
R: waltz
M: 3/4
K: Gmajor
E2 B,2 E2|G2 B2 e2|g6-|g4 f2|
e2 B2 G2|e2 B2 c2|d6-|d2 A2 F2|
D2 B,2 D2|F2 A2 B2|f6-|f4 e2|
d2 B2- Bc|d2 (3cdc B2|G6-|G2 A2 F2|
E2 B,2 E2|G2 B2 e2|g6-|g4 f2|
e2 B2 G2|e2 f2 e2|c6-|c4 d2|
e2 c2 A2|e4 d2|e2 B2 G2|e4 B2|
d2 (3cdc B2|A2 (3GAG F2|E6-|E2||
g6-|g2 d2 f2|e6-|e2 B2 d2|
e2 (3ded c2|B2 (3ABA G2|F6-|F2 f2 =e2|
f6-|f2 c2 e2|d6-|d2 B2 c2|
d2 (3cdc B2|A2 (3GAG F2|E6-|E2 g2 ^f2|
g6-|g2 d2 f2|e6-|e2 B2 d2|
e2 (3ded c2|B2 (3ABA G2|F6-|F2 c2 d2|
e2 c2 A2|e2 c2 A2|e2 B2 G2|e2 B2 G2|
d2 (3cdc B2|A2 (3GAG F2|E6-|E2||

